style-guide/assets/xd-icons-users-tiny.svg

<?xml version="1.0" encoding="UTF-8"?>
<svg width="12px" height="12px" viewBox="0 0 12 12" version="1.1" xmlns="http://www.w3.org/2000/svg" xmlns:xlink="http://www.w3.org/1999/xlink">
    <!-- Generator: Sketch 51.3 (57544) - http://www.bohemiancoding.com/sketch -->
    <title>users</title>
    <desc>Created with Sketch.</desc>
    <defs></defs>
    <g id="users" stroke="none" stroke-width="1" fill="none" fill-rule="evenodd">
        <path d="M4,5.99837281 C6.206,5.99837281 8,7.79237281 8,9.99837281 C8,10.5503728 7.552,10.9983728 7,10.9983728 C6.448,10.9983728 6,10.5503728 6,9.99837281 C6,8.89537281 5.103,7.99837281 4,7.99837281 C2.897,7.99837281 2,8.89537281 2,9.99837281 C2,10.5503728 1.552,10.9983728 1,10.9983728 C0.448,10.9983728 0,10.5503728 0,9.99837281 C0,7.79237281 1.794,5.99837281 4,5.99837281 Z M8,3.99837281 C10.206,3.99837281 12,5.79237281 12,7.99837281 C12,8.55037281 11.552,8.99837281 11,8.99837281 C10.448,8.99837281 10,8.55037281 10,7.99837281 C10,6.89537281 9.103,5.99837281 8,5.99837281 C7.448,5.99837281 7,5.55037281 7,4.99837281 C7,4.44637281 7.448,3.99837281 8,3.99837281 Z M4,4.99937281 C3.74,4.99937281 3.48,4.88937281 3.29,4.70937281 C3.11,4.51937281 3,4.25937281 3,3.99937281 C3,3.86837281 3.03,3.73937281 3.08,3.61837281 C3.13,3.49937281 3.2,3.38937281 3.29,3.28937281 C3.52,3.06037281 3.87,2.94837281 4.2,3.01937281 C4.26,3.02837281 4.32,3.04937281 4.38,3.07937281 C4.44,3.09937281 4.5,3.12937281 4.56,3.16937281 C4.61,3.19837281 4.66,3.24937281 4.71,3.28937281 C4.8,3.38937281 4.87,3.49937281 4.92,3.61837281 C4.97,3.73937281 5,3.86837281 5,3.99937281 C5,4.25937281 4.89,4.51937281 4.71,4.70937281 C4.66,4.74937281 4.61,4.78937281 4.56,4.82937281 C4.5,4.86837281 4.44,4.89937281 4.38,4.91937281 C4.32,4.94837281 4.26,4.96937281 4.2,4.97937281 C4.13,4.98937281 4.07,4.99937281 4,4.99937281 Z M8,3.00037281 C7.74,3.00037281 7.48,2.89037281 7.29,2.71037281 C7.11,2.52137281 7,2.26037281 7,2.00037281 C7,1.87037281 7.03,1.73937281 7.08,1.62037281 C7.13,1.50037281 7.2,1.39037281 7.29,1.29037281 C7.52,1.06037281 7.87,0.950372807 8.2,1.02137281 C8.26,1.03037281 8.32,1.05037281 8.38,1.07937281 C8.44,1.10037281 8.5,1.13037281 8.56,1.17037281 C8.61,1.20037281 8.66,1.25037281 8.71,1.29037281 C8.8,1.39037281 8.87,1.50037281 8.92,1.62037281 C8.97,1.73937281 9,1.87037281 9,2.00037281 C9,2.26037281 8.89,2.52137281 8.71,2.71037281 C8.66,2.75037281 8.61,2.79037281 8.56,2.82937281 C8.5,2.87037281 8.44,2.89937281 8.38,2.92037281 C8.32,2.95037281 8.26,2.97037281 8.2,2.97937281 C8.13,2.98937281 8.07,3.00037281 8,3.00037281 Z" id="Fill-1" fill="#000000"></path>
    </g>
</svg>

<svg viewBox="0 0 12 12" xmlns="http://www.w3.org/2000/svg">
  <path d="M4 5.998c2.206 0 4 1.794 4 4a1 1 0 0 1-2 0c0-1.103-.897-2-2-2s-2 .897-2 2a1 1 0 0 1-2 0c0-2.206 1.794-4 4-4zm4-2c2.206 0 4 1.794 4 4a1 1 0 0 1-2 0c0-1.103-.897-2-2-2a1 1 0 0 1 0-2zM4 5c-.26 0-.52-.11-.71-.29C3.11 4.52 3 4.26 3 4a1 1 0 0 1 .08-.38c.05-.12.12-.23.21-.33.23-.229.58-.34.91-.27.06.01.12.03.18.06.06.02.12.05.18.09.05.03.1.08.15.12.09.1.16.21.21.33a1 1 0 0 1 .08.38c0 .26-.11.52-.29.71l-.15.12a.797.797 0 0 1-.18.09.669.669 0 0 1-.18.06c-.07.01-.13.02-.2.02zM8 3c-.26 0-.52-.11-.71-.29A1.05 1.05 0 0 1 7 2c0-.13.03-.26.08-.38s.12-.23.21-.33c.23-.23.58-.34.91-.269a.63.63 0 0 1 .18.058c.06.021.12.051.18.091.05.03.1.08.15.12.09.1.16.21.21.33.05.12.08.25.08.38 0 .26-.11.521-.29.71l-.15.12a.762.762 0 0 1-.18.09c-.06.03-.12.05-.18.06-.07.01-.13.02-.2.02z"/>
</svg>
